source/img/icon-alarm.svg

<svg width="26" height="32" viewBox="0 0 26 32" fill="none" xmlns="http://www.w3.org/2000/svg">
<path d="M5.53079 0C4.46922 0 4.46922 1.59266 5.53079 1.59266H12.1656V3.20655C5.37156 3.64188 0 9.47101 0 16.5849C0 20.6196 1.74098 24.2615 4.49045 26.7142C4.96816 27.1389 5.03185 27.8927 4.59661 28.3599L3.06794 29.9207C2.32484 30.6109 3.42888 31.6833 4.09767 30.9294L6.09343 28.8802C6.44375 28.5404 6.96392 28.4555 7.39916 28.6678C9.11549 29.5168 11.0026 29.9638 12.9173 29.9748C14.832 29.9859 16.7241 29.5607 18.4501 28.7315C18.8748 28.5192 19.4055 28.6041 19.7453 28.9439L21.6773 30.9294C22.3567 31.5665 23.3334 30.6109 22.7177 29.9207L21.2739 28.4343C20.8281 27.9777 20.8918 27.2238 21.3801 26.7885C22.8287 25.5116 23.9874 23.9396 24.7784 22.1778C25.5693 20.4161 25.9743 18.5055 25.9661 16.5743C25.9661 9.46039 20.5627 3.62064 13.758 3.20655V1.59266H20.3928C21.4544 1.59266 21.4544 0 20.3928 0H5.53079ZM1.43312 16.5743C1.43312 10.0019 6.60298 4.68241 12.983 4.68241C19.3525 4.68241 24.5223 10.0019 24.5223 16.5743C24.5223 23.1572 19.3525 28.4873 12.983 28.4873C6.6136 28.4873 1.43312 23.1572 1.43312 16.5743ZM12.1762 8.43047C12.1762 7.32623 13.8323 7.32623 13.8323 8.43047V17.1158C13.8323 17.341 13.7428 17.5571 13.5836 17.7164C13.4243 17.8757 13.2083 17.9652 12.983 17.9652C12.7709 17.9652 12.5673 17.8816 12.4163 17.7326C12.2653 17.5836 12.179 17.381 12.1762 17.1689V8.43047ZM7.20808 11.0637C7.51496 11.0637 7.80928 10.9417 8.02628 10.7247C8.24328 10.5076 8.36519 10.2133 8.36519 9.90633C8.36519 9.59939 8.24328 9.30502 8.02628 9.08797C7.80928 8.87093 7.51496 8.749 7.20808 8.749C6.92168 8.77653 6.65581 8.9098 6.46233 9.1228C6.26886 9.3358 6.16167 9.61325 6.16167 9.90102C6.16167 10.1888 6.26886 10.4662 6.46233 10.6792C6.65581 10.8922 6.92168 11.0255 7.20808 11.053V11.0637ZM18.7474 11.0637C19.0543 11.0637 19.3486 10.9417 19.5656 10.7247C19.7826 10.5076 19.9045 10.2133 19.9045 9.90633C19.9045 9.59939 19.7826 9.30502 19.5656 9.08797C19.3486 8.87093 19.0543 8.749 18.7474 8.749C18.461 8.77653 18.1951 8.9098 18.0016 9.1228C17.8082 9.3358 17.701 9.61325 17.701 9.90102C17.701 10.1888 17.8082 10.4662 18.0016 10.6792C18.1951 10.8922 18.461 11.0255 18.7474 11.053V11.0637ZM8.36519 23.7306C8.36519 25.2702 6.05096 25.2702 6.05096 23.7306C6.05096 22.191 8.36519 22.191 8.36519 23.7306ZM12.983 27.192C13.1436 27.2074 13.3056 27.1891 13.4586 27.1382C13.6117 27.0874 13.7524 27.005 13.8718 26.8966C13.9912 26.7881 14.0866 26.6558 14.1519 26.5083C14.2171 26.3608 14.2509 26.2013 14.2509 26.04C14.2509 25.8786 14.2171 25.7191 14.1519 25.5716C14.0866 25.4241 13.9912 25.2918 13.8718 25.1833C13.7524 25.0749 13.6117 24.9926 13.4586 24.9417C13.3056 24.8908 13.1436 24.8725 12.983 24.8879C12.6966 24.9155 12.4308 25.0487 12.2373 25.2617C12.0438 25.4747 11.9366 25.7522 11.9366 26.04C11.9366 26.3277 12.0438 26.6052 12.2373 26.8182C12.4308 27.0312 12.6966 27.1644 12.983 27.192ZM4.90447 16.7441C4.9199 16.9047 4.90159 17.0668 4.85073 17.2198C4.79986 17.3729 4.71756 17.5137 4.60911 17.6331C4.50065 17.7525 4.36844 17.8479 4.22095 17.9132C4.07346 17.9785 3.91395 18.0122 3.75266 18.0122C3.59137 18.0122 3.43186 17.9785 3.28437 17.9132C3.13688 17.8479 3.00467 17.7525 2.89621 17.6331C2.78775 17.5137 2.70545 17.3729 2.65459 17.2198C2.60373 17.0668 2.58542 16.9047 2.60085 16.7441C2.62838 16.4577 2.76162 16.1918 2.97458 15.9983C3.18754 15.8047 3.46494 15.6975 3.75266 15.6975C4.04038 15.6975 4.31778 15.8047 4.53074 15.9983C4.7437 16.1918 4.87694 16.4577 4.90447 16.7441ZM22.2081 17.9015C22.3686 17.9169 22.5307 17.8986 22.6837 17.8477C22.8368 17.7969 22.9775 17.7145 23.0969 17.6061C23.2163 17.4976 23.3116 17.3653 23.3769 17.2178C23.4422 17.0703 23.4759 16.9108 23.4759 16.7495C23.4759 16.5881 23.4422 16.4286 23.3769 16.2811C23.3116 16.1336 23.2163 16.0013 23.0969 15.8928C22.9775 15.7844 22.8368 15.702 22.6837 15.6512C22.5307 15.6003 22.3686 15.582 22.2081 15.5974C21.9217 15.625 21.6558 15.7582 21.4624 15.9712C21.2689 16.1842 21.1617 16.4617 21.1617 16.7495C21.1617 17.0372 21.2689 17.3147 21.4624 17.5277C21.6558 17.7407 21.9217 17.8739 22.2081 17.9015ZM19.9045 23.7412C19.9045 25.2702 17.5903 25.2702 17.5903 23.7306C17.5903 22.191 19.9045 22.191 19.9045 23.7306V23.7412Z" fill="white"/>
</svg>

<svg width="26" height="32" fill="none" xmlns="http://www.w3.org/2000/svg"><path d="M5.53 0c-1.06 0-1.06 1.593 0 1.593h6.636v1.614C5.372 3.642 0 9.47 0 16.585c0 4.035 1.741 7.677 4.49 10.13.478.424.542 1.178.107 1.645l-1.53 1.56c-.742.69.362 1.763 1.03 1.01l1.996-2.05c.35-.34.87-.424 1.306-.212a12.61 12.61 0 0 0 11.051.064 1.133 1.133 0 0 1 1.295.212l1.932 1.985c.68.638 1.656-.318 1.04-1.008l-1.443-1.487c-.446-.456-.382-1.21.106-1.646a13.538 13.538 0 0 0 4.586-10.214c0-7.114-5.403-12.953-12.208-13.367V1.593h6.635c1.061 0 1.061-1.593 0-1.593H5.53ZM1.434 16.574c0-6.572 5.17-11.892 11.55-11.892 6.37 0 11.54 5.32 11.54 11.892 0 6.583-5.17 11.913-11.54 11.913-6.37 0-11.55-5.33-11.55-11.913ZM12.176 8.43c0-1.104 1.656-1.104 1.656 0v8.686a.85.85 0 0 1-.849.85.807.807 0 0 1-.807-.797V8.43Zm-4.968 2.634a1.157 1.157 0 0 0 0-2.315 1.157 1.157 0 0 0 0 2.304v.01Zm11.54 0a1.157 1.157 0 0 0 0-2.315 1.157 1.157 0 0 0 0 2.304v.01ZM8.364 23.73c0 1.54-2.314 1.54-2.314 0s2.314-1.54 2.314 0Zm4.618 3.461a1.157 1.157 0 1 0 .221-2.303 1.157 1.157 0 0 0-.221 2.303ZM4.904 16.744a1.157 1.157 0 1 1-2.304.222 1.157 1.157 0 0 1 2.304-.222Zm17.304 1.157a1.157 1.157 0 1 0 .221-2.303 1.157 1.157 0 0 0-.22 2.303Zm-2.303 5.84c0 1.53-2.315 1.53-2.315-.01s2.314-1.54 2.314 0v.01Z" fill="#fff"/></svg>
